brandFactory_export/1.Light/Play_1Light.svg

<?xml version="1.0" encoding="UTF-8"?>
<svg width="24px" height="24px" viewBox="0 0 24 24" version="1.1" xmlns="http://www.w3.org/2000/svg" xmlns:xlink="http://www.w3.org/1999/xlink">
    <title>1.Light/Play_1Light</title>
    <g id="Symbols" stroke="none" stroke-width="1" fill="none" fill-rule="evenodd">
        <g id="1.Light/Play_1Light" fill="#5CB615" fill-rule="nonzero">
            <path d="M11.8285714,0.0268907563 C15.5966387,0.0268907563 18.5176471,1.00168067 20.5142857,2.92773109 C22.5848739,4.92436975 23.6369769,7.92268908 23.6369769,11.8352941 C23.6403361,19.5563025 19.5563025,23.6403361 11.8285714,23.6403361 C4.10756303,23.6403361 0.0235294118,19.5596639 0.0235294118,11.8352941 C0.0235294118,4.11092437 4.10420168,0.0268907563 11.8285714,0.0268907563 Z M11.8285714,0.699159664 C4.44369748,0.699159664 0.695798319,4.44705882 0.695798319,11.8352941 C0.695798319,19.2201681 4.44033613,22.9680672 11.8285714,22.9680672 C19.2201681,22.9680672 22.9647081,19.2235294 22.9647081,11.8352941 C22.9680672,4.44369748 19.2201681,0.699159664 11.8285714,0.699159664 Z M8.33613445,6.56806723 L16.8907563,11.5058824 C16.9882353,11.5630252 17.0453782,11.6638655 17.0453782,11.7747899 C17.0453782,11.8857143 16.9848739,11.989916 16.8907563,12.0436975 L8.33277311,16.9848739 C8.28571429,17.0117647 8.23193277,17.0252101 8.17815126,17.0252101 C8.12436975,17.0252101 8.07058824,17.0117647 8.02352941,16.9848739 C7.92605042,16.9277311 7.86890756,16.8268908 7.86890756,16.7159664 L7.86890756,6.83697479 C7.86890756,6.72605042 7.92941176,6.62184874 8.02352941,6.56806723 C8.1210084,6.51092437 8.23865546,6.51092437 8.33613445,6.56806723 Z M8.4907563,7.37815126 L8.4907563,16.1747899 L16.107563,11.7781513 L8.4907563,7.37815126 Z" id="Play_1Light"></path>
        </g>
    </g>
</svg>

<svg width="24" height="24" viewBox="0 0 24 24" xmlns="http://www.w3.org/2000/svg"><path d="M11.829.027c3.768 0 6.689.975 8.685 2.9 2.07 1.997 3.123 4.996 3.123 8.908.003 7.721-4.08 11.805-11.808 11.805C4.108 23.64.024 19.56.024 11.835.024 4.111 4.104.027 11.829.027zm0 .672C4.444.7.696 4.447.696 11.835c0 7.385 3.744 11.133 11.133 11.133 7.391 0 11.136-3.744 11.136-11.133C22.968 4.444 19.22.7 11.829.7zM8.336 6.57l8.555 4.937a.312.312 0 010 .538l-8.558 4.94a.312.312 0 01-.31 0 .309.309 0 01-.154-.268V6.837a.312.312 0 01.467-.269zm.155.81v8.796l7.617-4.397-7.617-4.4z" fill="#5CB615" fill-rule="nonzero"/></svg>
